src/img/icons/settings_icon.svg

<svg role="img" xmlns="http://www.w3.org/2000/svg" viewBox="0 0 24 24"><title>Settings icon</title><path d="M20.2499 12.5699v-1.1475l1.44-1.26a1.49925 1.49925 0 00.4918-.90416 1.4997 1.4997 0 00-.2068-1.0083l-1.77-3a1.49985 1.49985 0 00-1.2975-.75 1.5001 1.5001 0 00-.48.075l-1.8225.615a8.5003 8.5003 0 00-.9825-.5625l-.3825-1.89a1.4996 1.4996 0 00-.5306-.87622 1.5 1.5 0 00-.9694-.33128h-3.51a1.49998 1.49998 0 00-1.49995 1.2075l-.3825 1.89a8.60931 8.60931 0 00-.99.5625l-1.785-.645a1.50003 1.50003 0 00-.48-.045 1.49997 1.49997 0 00-1.2975.75l-1.77 3a1.49998 1.49998 0 00-.18402.99642 1.49981 1.49981 0 00.49152.88604l1.4175 1.2975v1.1475l-1.4175 1.26a1.50018 1.50018 0 00-.50386.9 1.49992 1.49992 0 00.19636 1.0125l1.77 3a1.4998 1.4998 0 001.2975.75c.16301.0013.32513-.024.48-.075l1.8225-.615c.31465.2091.64288.397.9825.5625l.3825 1.89c.06858.3453.25643.6555.53065.8763a1.4999 1.4999 0 00.9693.3312h3.54c.352.0068.6952-.1105.9694-.3312.2742-.2208.4621-.531.5306-.8763l.3825-1.89c.3421-.1654.6728-.3533.99-.5625l1.815.615c.1549.051.317.0763.48.075.2631-.0002.5214-.0697.7492-.2013.2277-.1316.4168-.3209.5483-.5487l1.71-3a1.49972 1.49972 0 00-.3075-1.8825l-1.4175-1.2975zm-1.3425 5.43l-2.5725-.87a6.64417 6.64417 0 01-2.0325 1.1775l-.5325 2.6925h-3.54l-.53245-2.6625a7.01813 7.01813 0 01-2.025-1.1775l-2.58.84-1.77-3 2.04-1.8a6.67487 6.67487 0 010-2.3475l-2.04-1.85246 1.77-3 2.5725.87a6.64496 6.64496 0 012.0325-1.1775l.53245-2.6925h3.54l.5325 2.6625a7.01876 7.01876 0 012.025 1.1775l2.58-.84 1.77 3-2.04 1.79996a6.67393 6.67393 0 010 2.3475l2.04 1.8525-1.77 3z"/><path d="M12 16.5c-.89 0-1.76-.2639-2.50006-.7584a4.50043 4.50043 0 01-1.6574-2.0195 4.50008 4.50008 0 01.97548-4.90408 4.5001 4.5001 0 014.90408-.97548 4.50043 4.50043 0 012.0195 1.6574A4.49986 4.49986 0 0116.5 12a4.4559 4.4559 0 01-.3303 1.7292 4.45426 4.45426 0 01-.9743 1.4662 4.45426 4.45426 0 01-1.4662.9743A4.4559 4.4559 0 0112 16.5zM12 9a2.93288 2.93288 0 00-1.1589.20954 2.93344 2.93344 0 00-.98298.64858 2.93344 2.93344 0 00-.64858.98298A2.93288 2.93288 0 009 12a2.93288 2.93288 0 00.20954 1.1589c.1475.3681.36814.7026.64858.983a2.9341 2.9341 0 00.98298.6486A2.9332 2.9332 0 0012 15a2.9332 2.9332 0 001.1589-.2095c.3681-.1475.7026-.3682.983-.6486.2804-.2804.5011-.6149.6486-.983A2.9332 2.9332 0 0015 12a2.9332 2.9332 0 00-.2095-1.1589 2.9341 2.9341 0 00-.6486-.98298 2.93272 2.93272 0 00-.983-.64858A2.93288 2.93288 0 0012 9z" /></svg>

<svg width="24" height="24" viewBox="0 0 24 24" fill="none" xmlns="http://www.w3.org/2000/svg">
<path d="M20.2499 12.5699V11.9999V11.4224L21.6899 10.1624C21.9554 9.92848 22.1296 9.60821 22.1817 9.25824C22.2339 8.90827 22.1606 8.55113 21.9749 8.24994L20.2049 5.24994C20.0734 5.02214 19.8843 4.83292 19.6566 4.70129C19.4288 4.56965 19.1705 4.50021 18.9074 4.49994C18.7444 4.49869 18.5823 4.52402 18.4274 4.57494L16.6049 5.18994C16.2903 4.98084 15.9621 4.79293 15.6224 4.62744L15.2399 2.73744C15.1714 2.39214 14.9835 2.08197 14.7093 1.86122C14.4351 1.64046 14.0919 1.52319 13.7399 1.52994H10.2299C9.87797 1.52319 9.53483 1.64046 9.2606 1.86122C8.98638 2.08197 8.79853 2.39214 8.72995 2.73744L8.34745 4.62744C8.0054 4.79289 7.67467 4.9808 7.35745 5.18994L5.57245 4.54494C5.41592 4.50416 5.25383 4.48896 5.09245 4.49994C4.8294 4.50021 4.57105 4.56965 4.34332 4.70129C4.11558 4.83292 3.92647 5.02214 3.79495 5.24994L2.02495 8.24994C1.84989 8.55068 1.78483 8.90293 1.84093 9.24636C1.89703 9.58979 2.07079 9.90303 2.33245 10.1324L3.74995 11.4299V12.5774L2.33245 13.8374C2.0634 14.0684 1.88489 14.3873 1.82859 14.7374C1.7723 15.0875 1.84187 15.4462 2.02495 15.7499L3.79495 18.7499C3.92647 18.9777 4.11558 19.167 4.34332 19.2986C4.57105 19.4302 4.8294 19.4997 5.09245 19.4999C5.25546 19.5012 5.41758 19.4759 5.57245 19.4249L7.39495 18.8099C7.7096 19.019 8.03783 19.2069 8.37745 19.3724L8.75995 21.2624C8.82853 21.6077 9.01638 21.9179 9.2906 22.1387C9.56483 22.3594 9.90797 22.4767 10.2599 22.4699H13.7999C14.1519 22.4767 14.4951 22.3594 14.7693 22.1387C15.0435 21.9179 15.2314 21.6077 15.2999 21.2624L15.6824 19.3724C16.0245 19.207 16.3552 19.0191 16.6724 18.8099L18.4874 19.4249C18.6423 19.4759 18.8044 19.5012 18.9674 19.4999C19.2305 19.4997 19.4888 19.4302 19.7166 19.2986C19.9443 19.167 20.1334 18.9777 20.2649 18.7499L21.9749 15.7499C22.15 15.4492 22.2151 15.0969 22.159 14.7535C22.1029 14.4101 21.9291 14.0968 21.6674 13.8674L20.2499 12.5699ZM18.9074 17.9999L16.3349 17.1299C15.7327 17.64 15.0445 18.0387 14.3024 18.3074L13.7699 20.9999H10.2299L9.69745 18.3374C8.96126 18.0611 8.27673 17.6631 7.67245 17.1599L5.09245 17.9999L3.32245 14.9999L5.36245 13.1999C5.22377 12.4236 5.22377 11.6288 5.36245 10.8524L3.32245 8.99994L5.09245 5.99994L7.66495 6.86994C8.26715 6.35986 8.9554 5.96113 9.69745 5.69244L10.2299 2.99994H13.7699L14.3024 5.66244C15.0386 5.93876 15.7232 6.3368 16.3274 6.83994L18.9074 5.99994L20.6774 8.99994L18.6374 10.7999C18.7761 11.5763 18.7761 12.3711 18.6374 13.1474L20.6774 14.9999L18.9074 17.9999Z" fill="black"/>
<path d="M12 16.5C11.11 16.5 10.24 16.2361 9.49994 15.7416C8.75991 15.2471 8.18314 14.5443 7.84254 13.7221C7.50195 12.8998 7.41283 11.995 7.58647 11.1221C7.7601 10.2492 8.18869 9.44736 8.81802 8.81802C9.44736 8.18869 10.2492 7.7601 11.1221 7.58647C11.995 7.41283 12.8998 7.50195 13.7221 7.84254C14.5443 8.18314 15.2471 8.75991 15.7416 9.49994C16.2361 10.24 16.5 11.11 16.5 12C16.506 12.5926 16.3937 13.1805 16.1697 13.7292C15.9457 14.2779 15.6145 14.7763 15.1954 15.1954C14.7763 15.6145 14.2779 15.9457 13.7292 16.1697C13.1805 16.3937 12.5926 16.506 12 16.5V16.5ZM12 9C11.6035 8.99077 11.2093 9.06205 10.8411 9.20954C10.473 9.35704 10.1386 9.57768 9.85812 9.85812C9.57768 10.1386 9.35704 10.473 9.20954 10.8411C9.06205 11.2093 8.99077 11.6035 9 12C8.99077 12.3965 9.06205 12.7907 9.20954 13.1589C9.35704 13.527 9.57768 13.8615 9.85812 14.1419C10.1386 14.4223 10.473 14.643 10.8411 14.7905C11.2093 14.938 11.6035 15.0092 12 15C12.3965 15.0092 12.7907 14.938 13.1589 14.7905C13.527 14.643 13.8615 14.4223 14.1419 14.1419C14.4223 13.8615 14.643 13.527 14.7905 13.1589C14.938 12.7907 15.0092 12.3965 15 12C15.0092 11.6035 14.938 11.2093 14.7905 10.8411C14.643 10.473 14.4223 10.1386 14.1419 9.85812C13.8615 9.57768 13.527 9.35704 13.1589 9.20954C12.7907 9.06205 12.3965 8.99077 12 9Z" fill="black"/>
</svg>
